!!!COM: Lassus, Rudolphus
!!!CDT: 1563-1625
!!!OPR: Geistliche Psalmen mit dreyen Stimmen
!!!ONM: 16
!!!OTL@@LA: Exaudi Domine iustitiam
!!!OTL-incipit@@DE: Erhör mein fromkeit trewer Herr
**kern	**text	**kern	**text	**kern	**text
*staff3	*staff3	*staff2	*staff2	*staff1	*staff1
*Ivox	*	*Ivox	*	*Ivox	*
*I"Bassus	*	*I"Tenor	*	*I"Cantus	*
*I'B	*	*I'T	*	*I'C	*
*clefC4	*	*clefC3	*	*clefC1	*
*k[b-]	*	*k[b-]	*	*k[b-]	*
*g:dor	*	*g:dor	*	*g:dor	*
*M2/1	*	*M2/1	*	*M2/1	*
*met(C|)	*	*met(C|)	*	*met(C|)	*
*MM180	*	*MM180	*	*MM180	*
=1	=1	=1	=1	=1	=1
*xywh-#142:307,70,2733,536	*	*xywh-#86:294,32,2754,550	*	*xywh-#26:293,44,2722,535	*
!	!	!LO:TX:a:i:t=c.f.	!	!	!
2r	.	1d	Er-	2r	.
2G	Er-	.	.	2b-	Er-
4G	-hör	2d	-hör	2b-	-hör
4A	.	.	.	.	.
4B-	.	2d	mein	2b-	mein
4c	.	.	.	.	.
=2	=2	=2	=2	=2	=2
2d	.	2G	from-	2b-	from-
2e-	mein	2c	-keit	1g	-keit
2E-	from̃-	1B-	trew-	.	.
!! cadence start
2G	-keit	.	.	4d	trew-
.	.	.	.	4e	.
=3	=3	=3	=3	=3	=3
2D	trew-	1A	-er	4f#i	.
.	.	.	.	2g	.
2D	-er	.	.	.	.
.	.	.	.	4f#i	-er
2d	Herr/	2G	Herr/	2.b-	Herr/
!! cadence end; ultima=g
2G	ist	1d	ist	.	.
.	.	.	.	4cc	.
=4	=4	=4	=4	=4	=4
2B-	mein	.	.	2dd	.
2c	be-	2e	mein	2cc	ist
!! cadence start
0d	-ger/	2f#i	be-	2a	mein
.	.	2.g	-ger/	2b-	be-
=5	=5	=5	=5	=5	=5
*	*	*	*	*xywh-#26:279,529,2706,394	*
.	.	.	.	2a	-ger/
.	.	4f#i	.	.	.
.	.	4f#i	.	2d	ver-
.	.	8e	.	.	.
.	.	8d	.	.	.
*xywh-#142:304,579,2742,465	*	*xywh-#86:287,557,2754,452	*	*	*
2r	.	4e	.	2g	-nimb
!! cadence end; ultima=g
.	.	4c	.	.	.
2G	ver-	2d	.	2g	mein
=6	=6	=6	=6	=6	=6
2c	-nim̃	1r	.	2.e-	bit-
2c	mein	.	.	.	.
.	.	.	.	4e-	-ter-
2.B-	bit-	2r	.	2d	-li-
.	.	2d	Ver-	4f	-ches
*	*	*	*	*	*ij
4B-	-ter-	.	.	4f	ver-
=7	=7	=7	=7	=7	=7
2G	-li-	2g	-nimb	2b-	-nimb
4G	-ches	2g	mein	2b-	mein
*	*ij	*	*	*	*
4G	ver-	.	.	.	.
2d	-nim̃	1f	bit-	2.a	bit-
2d	mein	.	.	.	.
.	.	.	.	4a	-ter-
=8	=8	=8	=8	=8	=8
2.B-	bit-	1d	-ter-	2g	-li-
.	.	.	.	2f	-ches
*	*	*	*	*	*Xij
4B-	-ter-	.	.	.	.
2G	-li-	2e-	-li-	2r	.
!! cadence start
2B-	-ches	2d	-ches	4f	kla-
*	*Xij	*	*	*	*
.	.	.	.	4g	.
=9	=9	=9	=9	=9	=9
1F	kla-	1c	kla-	4a	.
.	.	.	.	2b-	.
.	.	.	.	4a	.
2.G	-gen/	2.B-	-gen/	2b-	-gen/
!! cadence end; ultima=b-
.	.	.	.	2dd	in
4B-	in	4d	in	.	.
=10	=10	=10	=10	=10	=10
!! cadence start
2A	die-	4e	die-	2cc	die-
.	.	4f#i	-sen	.	.
2G	-sem	2.g	za-	2b-	-sen
*	*	*	*	*xywh-#26:270,894,2713,382	*
1d	za-	.	.	1a	za-
.	.	8f#i	.	.	.
.	.	8e	.	.	.
.	.	2f#i	.	.	.
=11	=11	=11	=11	=11	=11
2G	-gen/	1d	-gen/	2.b-	-gen/
!! cadence end; ultima=g
2G	merck	.	.	.	.
.	.	.	.	8a	.
.	.	.	.	8g	.
*xywh-#142:297,988,2742,468	*	*xywh-#86:283,967,2751,448	*	*	*
2B-	auff	1r	.	4f	.
.	.	.	.	4g	.
2c	mein	.	.	4a	.
.	.	.	.	8g	.
.	.	.	.	8a	.
=12	=12	=12	=12	=12	=12
4d	bitt	1G	Merck	2b-	.
4c	.	.	.	.	.
4B-	.	.	.	2dd	merck
4A	.	.	.	.	.
2G	.	2B-	auff	2dd	auff
2F	fleh-	2c	mein	2a	mein
=13	=13	=13	=13	=13	=13
1B-	-li-	2d	bitt	2f	bitt
.	.	2d	fleh-	2f	fleh-
!! cadence start a
1A	-cher	2e	-li-	2.cc	-li-
.	.	2f	-cher	.	.
.	.	.	.	4cc	-cher
=14	=14	=14	=14	=14	=14
2G	wort/	2g	wort/	1b	wort/
2G	mein	2d	mein	.	.
!! cadence start b
2C	ai-	1e-	ai-	2cc	mein
!! cadence end a; ultima=c
2E-	-nig	.	.	4g	ai-
.	.	.	.	2b-i	-nig
=15	=15	=15	=15	=15	=15
1F	hort/	1c	-nig	.	.
.	.	.	.	8a	.
.	.	.	.	8g	.
.	.	.	.	2a	.
*	*	*	*	*xywh-#26:263,1222,2713,389	*
2r	.	4B-	hort/	4b-	hort/
!! cadence end b; ultima=b-
.	.	4c	.	8a	.
.	.	.	.	8g	.
2B-	die	4d	.	2f	.
.	.	4c	.	.	.
=16	=16	=16	=16	=16	=16
2f	nicht	4B-	.	2r	.
.	.	4A	.	.	.
2d	her-	2B-	.	2f	die
2e-	-kum̃t	2r	.	2g	nicht
2d	auß	2B-	die	2f	her-
=17	=17	=17	=17	=17	=17
*xywh-#142:295,1392,2755,486	*	*xywh-#86:269,1384,2765,448	*	*	*
4d	fal-	1f	nicht	2a	-kum̃t
4c	.	.	.	.	.
4B-	.	.	.	2.dd	auß
4A	.	.	.	.	.
4B-	.	1d	her	.	.
4A	.	.	.	4cc	.
4G	.	.	.	4b-	.
4F	.	.	.	4a	.
=18	=18	=18	=18	=18	=18
4G	.	2e-	kom̃t	2g	.
4A	.	.	.	.	.
2B-	.	2d	auß	4.f	fal-
.	.	.	.	8g	.
!! cadence start
2F	-schem	2c	fal-	4a	.
.	.	.	.	4a	-schem
2G	mun-	2B-	-schem	2.b-	mun-
=19	=19	=19	=19	=19	=19
1F	-de/	1c	mun-	.	.
.	.	.	.	8a	.
.	.	.	.	8g	.
.	.	.	.	2a	.
*	*	*	*	*xywh-#26:256,1554,2729,419	*
4r	.	2B-	-de/	4b-	-de/
!! cadence end; ultima=b-
4B-	auß	.	.	4dd	auß
2A	lo-	4r	.	4cc	lo-
.	.	4f	auß	4a	-sem
=20	=20	=20	=20	=20	=20
2G	-sem	2e	lo-	4r	.
.	.	.	.	4g	auß
4r	.	2d	-sem	8f	lo-
.	.	.	.	8e	.
*	*ij	*	*	*	*
4B-	aus	.	.	8d	.
.	.	.	.	8e	.
4A	lo-	4r	.	4f	.
*	*	*	*ij	*	*
4G	-sem	4B-	auß	4g	-sem
*	*Xij	*	*	*	*
4r	.	2A	lo-	2c	grun-
4F	auß	.	.	.	.
=21	=21	=21	=21	=21	=21
*xywh-#142:291,1812,2760,433	*	*	*	*	*
!! cadence start c
4E-	lo-	2G	-sem	4c	-de/
*	*	*	*Xij	*	*ij
4C	-sem	.	.	4cc	auß
2E-i	grun-	4r	.	4.b-	lo-
.	.	4G	auß	.	.
.	.	.	.	16a	.
.	.	.	.	16g	.
1D	-de.	4B-	lo-	8f	.
.	.	.	.	8d	.
.	.	4B-	-sem	2g	.
.	.	2A	grun-	.	.
.	.	.	.	4f#	-sem
=22	=22	=22	=22	=22	=22
*	*	*xywh-#86:265,1784,2770,455	*	*xywh-#26:250,1933,2729,403	*
!! cadence start d
4r	.	2G	-de.	4g	grun-
!! cadence end c; ultima=g
*	*ij	*	*	*	*
4G	auß	.	.	4d	-de
*	*	*	*ij	*	*Xij
4E-	lo-	4g	auß	4r	.
4C	-sem	4e-	lo-	4g	auß
1C	grun-	4c	-sem	4e-	lo-
.	.	4.e-X	grun-	4c	-sem
.	.	.	.	2e-X	grun-
.	.	8d	.	.	.
.	.	4c	.	.	.
=23	=23	=23	=23	=23	=23
0Gll	-de.	0Bll	-de.	0dll	-de.
!! cadence end d; ultima=g
*	*Xij	*	*Xij	*	*
==	==	==	==	==	==
*-	*-	*-	*-	*-	*-
!!!RDF**kern: l = terminal long
!!!RDF**kern: i = editorial accidental
!!!AGN: Psalm; Tricinium
!!!LIB: Ulenberg, Caspar
!!!LIB-CDT: 1548/12/24-1617/02/16
!!!YOR: https://mdz-nbn-resolving.de/details:bsb00075346
!!!YOO: München, Bayerische Staatsbibliothek
!!!URL-scan: https://www.digitale-sammlungen.de/de/view/bsb00075346?page=26 Cantus
!!!URL-scan: https://www.digitale-sammlungen.de/de/view/bsb00075346?page=86 Tenor
!!!URL-scan: https://www.digitale-sammlungen.de/de/view/bsb00075346?page=142 Bassus
!!!IIIF: https://api.digitale-sammlungen.de/iiif/presentation/v2/bsb00075346/manifest
!!!EED: Wolfgang Drescher
!!!END: 2023/03/06
!!!ENC: Wolfgang Drescher
!!!EEV: 2023/03/06
!!!title: @{ONM}. @{OTL} / <i>@{OTL-incipit@@DE}</i>